X: 1595
T: Maid of Listowell, The
R:hornpipe
N:"Collected by J. O'Neill"
B:O'Neill's 1595
Z:Transcribed by Michael Hogan
M:C|
L:1/8
K:G
B2 | AFEF E2 (FD) | EFAB d^cde | fedB AFEF | DFAF D2 (BA) |
AFEF E2 (FD) | EFAB d^cde | fedB AFDF | D2 DD D2 :|
|: BF | AFAB defe | dBAB d2 (de) | fedB AFEF | DEFG A2 (BF) |
AFEF E2 (FD) | EF (3AB^c dcde | fedB AFDF | D2 DD D2 :||


